!!!!SEGMENT:Kakeri.krn
!!!OTL: かけり
!!!OPR:Eiga Banso Kyokusyu,jidai-geki,kouhen
!!!YOY:1928
!!!ONB:Kakutou
**kern
*clefG2
*k[]
*C:
*M2/4
=1
16bbLL
16bb
16aa
16aaJJ
16bbLL
16bb
16aa
16aaJJ
=2
16ff#XLL
16ff#
16ff#
16eeJJ
16ff#LL
16ee
16cc
16ccJJ
=3
16ccLL
16cc
16b
16aJJ
8bL
16ccL
16ccJJ
=4
16ccLL
16b
16b
16aJJ
8bL
16aL
16aJJ
=5
16fLL
16e
16e
16cJJ
8BL
16dL
16dJJ
=6
16dLL
16e
16e
16dJJ
8eL
16aL
16aJJ
=7
16fLL
16a
16a
16fJJ
16aLL
16a
16b
16aJJ
=8
8BL
16ffL
16ffJJ
16ffLL
16ee
16ee
16ccJJ
=9
16bLL
16b
16B
16aJJ
16bLL
16bJJ
8r
==
*-
!!!ENC: Yukiko Yoden
!!!END: 2023/06/11
